icon-svg/nvidia-geforce.svg

<?xml version="1.0" encoding="UTF-8"?>
<svg width="24px" fill="#44739e" height="24px" viewBox="0 0 24 24" version="1.1" xmlns="http://www.w3.org/2000/svg" xmlns:xlink="http://www.w3.org/1999/xlink">
   <path d="m 9.6008718,5.401 c -0.2207963,0 -0.3999932,0.179597 -0.3999932,0.3999932 v 0.8398304 c 0.2615955,-0.026401 0.5287722,-0.039843 0.8007674,-0.039843 3.267145,0 5.660624,1.8378635 7.486593,3.7210324 0.142398,0.147197 0.150729,0.37873 0.01953,0.535927 -1.923967,2.299961 -4.308159,4.142901 -7.106912,4.142901 H 10.38055 C 9.9648238,14.98005 9.5714724,14.923928 9.2000946,14.834435 v -1.23826 c 0.3674026,0.129445 0.7674608,0.203903 1.1999794,0.203903 1.643172,0 3.919534,-1.327977 5.199912,-3.199947 -1.009983,-1.2947775 -3.691137,-2.7999525 -5.599905,-2.7999525 -0.2634906,0 -0.5305325,0.022984 -0.7992051,0.065627 V 6.6408269 C 6.4029254,6.9220222 4.1243511,8.6339365 2.1431844,10.293109 c -0.1279979,0.107198 -0.1759096,0.28342 -0.1203105,0.440618 1.1338992,3.210113 3.6249106,6.050509 7.1764418,6.578795 l 7.816e-4,0.887485 c 0,0.220797 0.179197,0.399593 0.3999933,0.399993 H 21.60067 c 0.220396,0 0.399994,-0.179196 0.399994,-0.399993 V 5.8009932 C 22.000664,5.5805971 21.821066,5.401 21.60067,5.401 Z M 9.1993157,7.8658026 V 9.0204709 C 7.8598938,9.1529078 6.5789221,9.9269802 5.3650053,10.812628 c -0.1551974,0.113198 -0.2077778,0.321326 -0.1257791,0.494523 0.8922618,1.886508 2.1753047,3.096336 3.9600895,3.527284 v 1.207011 C 6.5920151,15.37356 4.0717212,12.749935 3.6009723,11.000125 5.1417569,9.5705109 7.2209985,8.1786647 9.1993157,7.8658026 Z m 0.4007749,1.134356 c 1.6519724,0 2.9720374,0.426455 3.8796224,1.3140404 l -1.879656,1.485912 c -0.231596,-0.644388 -1.057583,-1.599973 -1.9999664,-1.599973 -0.1267243,0 -0.2609644,0.01596 -0.399212,0.04297 V 9.0204705 c 0.132284,-0.013492 0.2653367,-0.020309 0.399212,-0.020309 z M 9.1993157,10.243887 v 3.352288 C 8.0860888,13.202852 7.2776128,12.298718 6.8009188,11.400118 7.4356826,10.970014 8.3936653,10.401532 9.1993157,10.243887 Z m 8.8014143,1.956999 2.276525,1.489037 c -2.052766,1.967967 -5.880065,3.710876 -9.876397,3.710876 -0.4125235,0 -0.8134032,-0.03075 -1.2007607,-0.08828 v -1.271072 c 0.4005449,0.102677 0.8030157,0.159373 1.2007607,0.159373 2.759554,0 5.794703,-2.140765 7.599872,-3.999934 z"/>
</svg>

<svg xmlns="http://www.w3.org/2000/svg" viewBox="0 0 24 24"><path fill="#44739e" d="M9.601 5.401a.4.4 0 0 0-.4.4v.84q.393-.04.802-.04c3.267 0 5.66 1.838 7.486 3.721a.4.4 0 0 1 .02.536C15.585 13.158 13.201 15 10.401 15h-.02a6.4 6.4 0 0 1-1.18-.167v-1.238c.366.13.767.204 1.2.204 1.642 0 3.919-1.328 5.199-3.2-1.01-1.295-3.691-2.8-5.6-2.8q-.395 0-.8.066V6.64c-2.797.281-5.076 1.993-7.057 3.652a.4.4 0 0 0-.12.44c1.134 3.21 3.625 6.051 7.176 6.58l.001.887c0 .22.18.4.4.4h12a.4.4 0 0 0 .4-.4V5.801a.4.4 0 0 0-.4-.4Zm-.4 2.465V9.02c-1.34.133-2.621.907-3.835 1.793a.4.4 0 0 0-.126.494c.892 1.887 2.176 3.096 3.96 3.527v1.207c-2.607-.667-5.127-3.291-5.598-5.04 1.54-1.43 3.62-2.822 5.598-3.135M9.601 9c1.652 0 2.972.427 3.88 1.314l-1.88 1.486c-.232-.644-1.058-1.6-2-1.6a2 2 0 0 0-.4.043V9.02q.2-.02.4-.02m-.4 1.244v3.352c-1.115-.393-1.923-1.296-2.4-2.196.636-.43 1.594-.998 2.4-1.156m8.8 1.956 2.277 1.489c-2.053 1.968-5.88 3.71-9.876 3.71a8 8 0 0 1-1.2-.087V16.04c.4.103.802.16 1.2.16 2.76 0 5.795-2.14 7.6-4"/></svg>
